source/Icon/add-mode.svg

<svg width="32" height="32" viewBox="0 0 48 48" fill="none" xmlns="http://www.w3.org/2000/svg">
    <path d="M24.0033 4L29.2737 9.27038H38.7296V18.7263L44 23.9967L38.7296 29.2737V38.7296H29.2737L24.0033 44L18.7264 38.7296H9.27036V29.2737L4 23.9967L9.27036 18.7263V9.27038H18.7264L24.0033 4Z" fill="#2F88FF" stroke="#000000" stroke-width="4" stroke-miterlimit="10" stroke-linecap="round" stroke-linejoin="round"/>
    <path d="M17 23.9967H31" stroke="#FFF" stroke-width="4" stroke-miterlimit="10" stroke-linecap="round" stroke-linejoin="round"/>
    <path d="M24.0039 17V31" stroke="#FFF" stroke-width="4" stroke-miterlimit="10" stroke-linecap="round" stroke-linejoin="round"/>
</svg>

<svg width="48" height="48" viewBox="0 0 48 48" fill="none" xmlns="http://www.w3.org/2000/svg">
    <path stroke-linejoin="round" stroke-linecap="round" stroke-miterlimit="10" stroke-width="4" stroke="#333"
        d="m24.003 4 5.27 5.27h9.457v9.456l5.27 5.27-5.27 5.278v9.456h-9.456L24.004 44l-5.278-5.27H9.27v-9.456L4 23.997l5.27-5.27V9.27h9.456L24.003 4ZM17 23.997h14M24.004 17v14" />
</svg>
